icon-themes/breeze_svg/cmd/32/splitcell.svg

<svg viewBox="0 0 32 32" xmlns="http://www.w3.org/2000/svg"><path d="m4 4v24h24v-24zm1 1h7v2h-7zm8 0h6v2h-6zm7 0h7v2h-7zm-15 3h7v2h1v-2h6v2h1v-2h7v3h-6v1h6v3h-6v1h6v3h-6v1h6v3h-7v-2h-1v2h-6v-2h-1v2h-7v-3h6v-1h-6v-3h6v-1h-6v-3h6v-1h-6zm0 16h7v3h-7zm8 0h6v3h-6zm7 0h7v3h-7z" fill="#4d4d4d"/><path d="m11 10v11h10v-11zm1 1h8v2l-3 2.5 3 2.5v2h-8v-2l3-2.5-3-2.5z" fill="#da4453"/></svg>

<svg xmlns="http://www.w3.org/2000/svg" viewBox="0 0 32 32">
 <path 
     style="fill:#4d4d4d" 
     d="M 4 4 L 4 28 L 28 28 L 28 4 L 4 4 z M 5 5 L 12 5 L 12 7 L 5 7 L 5 5 z M 13 5 L 19 5 L 19 7 L 13 7 L 13 5 z M 20 5 L 27 5 L 27 7 L 20 7 L 20 5 z M 5 8 L 12 8 L 12 10 L 13 10 L 13 8 L 19 8 L 19 10 L 20 10 L 20 8 L 27 8 L 27 11 L 21 11 L 21 12 L 27 12 L 27 15 L 21 15 L 21 16 L 27 16 L 27 19 L 21 19 L 21 20 L 27 20 L 27 23 L 20 23 L 20 21 L 19 21 L 19 23 L 13 23 L 13 21 L 12 21 L 12 23 L 5 23 L 5 20 L 11 20 L 11 19 L 5 19 L 5 16 L 11 16 L 11 15 L 5 15 L 5 12 L 11 12 L 11 11 L 5 11 L 5 8 z M 5 24 L 12 24 L 12 27 L 5 27 L 5 24 z M 13 24 L 19 24 L 19 27 L 13 27 L 13 24 z M 20 24 L 27 24 L 27 27 L 20 27 L 20 24 z "
     />
 <path 
     style="fill:#da4453" 
     d="M 11 10 L 11 21 L 21 21 L 21 10 L 11 10 z M 12 11 L 20 11 L 20 13 L 17 15.5 L 20 18 L 20 20 L 12 20 L 12 18 L 15 15.5 L 12 13 L 12 11 z "
     />
</svg>
